<?xml version="1.0" encoding="UTF-8"?>
<map version="1.10" tiledversion="1.11.2" orientation="orthogonal" renderorder="right-down" compressionlevel="0" width="18" height="15" tilewidth="16" tileheight="16" infinite="0" nextlayerid="10" nextobjectid="9">
 <properties>
  <property name="AmbientLight" value="110 110 110"/>
  <property name="AmbientNightLight" value="130 130 100"/>
  <property name="ProduceArea" value="6 4 8 7"/>
  <property name="Warp" value="11 15 Farm 14 11"/>
 </properties>
 <tileset firstgid="1" name="barn" tilewidth="16" tileheight="16" tilecount="84" columns="4">
  <image source="tileset/coopTiles.png" width="64" height="336"/>
  <tile id="12">
   <properties>
    <property name="Type" value="Wood"/>
   </properties>
  </tile>
  <tile id="33">
   <properties>
    <property name="Passable" type="int" value="0"/>
    <property name="Trough" value="T"/>
   </properties>
  </tile>
  <tile id="53">
   <properties>
    <property name="Type" value="Wood"/>
   </properties>
  </tile>
  <tile id="54">
   <properties>
    <property name="Type" value="Wood"/>
   </properties>
  </tile>
 </tileset>
 <tileset firstgid="85" name="p" tilewidth="16" tileheight="16" tilecount="64" columns="4">
  <image source="tileset/paths.png" width="64" height="256"/>
 </tileset>
 <tileset firstgid="149" source="objects/Objects.tsx"/>
 <layer id="1" name="Back" width="18" height="15">
  <data encoding="csv">
13,13,13,13,13,13,13,13,13,13,13,13,13,13,13,13,13,13,
17,13,13,13,13,13,13,13,13,13,13,13,13,13,13,13,13,17,
21,13,13,13,13,13,13,13,13,13,13,13,13,13,13,13,13,21,
13,66,54,54,54,54,54,38,34,34,34,34,54,54,54,54,38,13,
13,37,13,26,13,53,13,57,54,54,47,54,54,13,26,13,56,13,
13,13,13,13,55,13,13,13,55,13,53,13,13,14,16,55,13,13,
13,13,55,13,13,13,53,13,13,13,55,13,18,19,19,24,55,13,
13,13,55,13,55,13,55,13,13,53,13,13,18,19,20,13,13,13,
13,13,13,13,13,13,13,37,55,13,55,37,22,23,24,13,13,13,
13,13,13,13,13,13,14,15,16,13,13,13,53,13,13,13,53,13,
13,13,13,13,13,13,18,19,20,13,13,13,14,15,16,13,13,13,
13,67,67,67,67,67,22,23,24,13,56,13,18,19,20,13,13,13,
13,19,19,19,19,20,53,13,13,13,13,13,22,23,24,13,55,13,
13,22,23,23,19,20,55,37,13,13,55,13,13,37,13,13,14,13,
13,13,13,13,13,13,13,13,55,13,13,13,13,13,55,13,13,13
</data>
 </layer>
 <layer id="2" name="Buildings" width="18" height="15">
  <data encoding="csv">
1,2,2,2,2,2,2,2,2,2,2,2,2,2,2,2,2,3,
5,17,61,25,17,17,17,62,17,17,25,17,62,17,25,17,17,7,
5,21,21,21,48,21,21,29,30,30,30,30,31,21,21,48,21,7,
5,73,76,0,0,0,0,41,0,0,0,0,42,74,75,0,0,7,
5,0,0,0,0,0,0,0,0,0,0,0,0,0,0,0,0,7,
5,60,0,0,0,0,0,0,0,0,0,0,0,0,0,0,0,7,
5,64,58,0,0,0,0,0,0,0,0,0,0,0,0,0,0,7,
9,63,63,0,0,0,0,0,0,0,0,0,0,0,0,0,0,7,
1,2,2,2,2,12,0,0,0,0,0,0,0,0,0,0,0,7,
5,17,17,17,17,17,0,0,0,0,0,0,0,0,0,0,0,7,
5,21,21,21,21,21,0,0,0,0,0,0,0,0,0,0,0,7,
5,43,44,73,43,44,0,0,0,0,0,0,0,0,0,0,0,7,
5,0,0,0,0,0,0,0,0,0,0,0,0,0,0,0,0,7,
5,0,0,0,0,0,0,0,0,0,0,0,0,0,0,0,76,7,
49,49,49,49,49,49,49,49,49,49,5,0,7,49,49,49,49,49
</data>
 </layer>
 <objectgroup id="9" name="objects">
  <properties>
   <property name="cameraFollow" type="bool" value="true"/>
  </properties>
  <object id="8" name="Player" gid="151" x="168.5" y="212.5" width="32" height="32">
   <properties>
    <property name="cameraFollow" type="bool" value="true"/>
    <property name="controller" type="bool" value="true"/>
    <property name="player" type="bool" value="true"/>
   </properties>
  </object>
  <object id="3" name="MapBoundary" x="176.333" y="234.667">
   <polygon points="0,0 0.333333,-16.3333 -160,-16.6667 -159.667,-43.6667 -157,-43.6667 -157,-59.3333 -133.667,-58.6667 -133.667,-43.6667 -108.667,-44.3333 -109.333,-59 -86,-59.3333 -86,-43.3333 -80.6667,-43.6667 -81,-112.333 -128.333,-112.333 -128,-122.333 -130.333,-124 -129.667,-138.333 -159.667,-137.333 -160.333,-173.667 -130.333,-173.333 -128.333,-187.667 -53,-187 -53,-170.667 31,-170.667 31,-174.333 62.3333,-173.667 63,-188.667 96,-188 95.3333,-40.6667 80.6667,-40.3333 80.6667,-17.6667 17,-15.6667 16,-1"/>
  </object>
  <object id="4" name="Spawner" x="176.333" y="220" width="15.6667" height="14.3333">
   <properties>
    <property name="sensor" type="bool" value="true"/>
    <property name="spawner" value="Farm"/>
   </properties>
  </object>
 </objectgroup>
 <layer id="3" name="Front" width="18" height="15">
  <data encoding="csv">
1,2,2,2,2,2,2,2,2,2,2,2,2,2,2,2,2,3,
5,65,0,0,0,0,0,0,0,0,0,0,0,0,0,0,0,7,
5,69,72,0,0,0,0,0,0,0,0,0,0,70,71,0,0,7,
5,0,0,0,0,0,0,0,0,0,0,0,0,0,0,0,0,7,
5,0,0,0,0,0,0,0,0,0,0,0,0,0,0,0,0,7,
5,0,0,0,0,0,0,0,0,0,0,0,0,0,0,0,0,7,
5,59,59,0,0,0,0,0,0,0,0,0,0,0,0,0,0,7,
9,10,10,10,10,4,0,0,0,0,0,0,0,0,0,0,0,7,
1,2,2,2,2,12,0,0,0,0,0,0,0,0,0,0,0,7,
5,0,0,65,0,0,0,0,0,0,0,0,0,0,0,0,0,7,
5,39,40,69,39,40,0,0,0,0,0,0,0,0,0,0,0,7,
5,0,0,0,0,0,0,0,0,0,0,0,0,0,0,0,0,7,
5,0,0,0,0,0,0,0,0,0,0,0,0,0,0,0,72,7,
9,10,10,10,10,10,10,10,10,10,4,0,8,10,10,10,10,11,
49,49,49,49,49,49,49,49,49,49,9,10,11,49,49,49,49,49
</data>
 </layer>
</map>
