<?xml version="1.0" encoding="UTF-8"?>
<map version="1.10" tiledversion="1.11.2" orientation="orthogonal" renderorder="right-down" compressionlevel="0" width="25" height="15" tilewidth="16" tileheight="16" infinite="0" nextlayerid="10" nextobjectid="6">
 <properties>
  <property name="AmbientLight" value="110 110 110"/>
  <property name="AutoFeed" value="T"/>
  <property name="ProduceArea" value="6 4 15 7"/>
  <property name="Warp" value="11 15 Farm 14 11"/>
 </properties>
 <tileset firstgid="1" name="barn" tilewidth="16" tileheight="16" tilecount="84" columns="4">
  <image source="tileset/coopTiles.png" width="64" height="336"/>
  <tile id="12">
   <properties>
    <property name="Type" value="Wood"/>
   </properties>
  </tile>
  <tile id="33">
   <properties>
    <property name="Passable" type="int" value="0"/>
    <property name="Trough" value="T"/>
   </properties>
  </tile>
  <tile id="53">
   <properties>
    <property name="Type" value="Wood"/>
   </properties>
  </tile>
  <tile id="54">
   <properties>
    <property name="Type" value="Wood"/>
   </properties>
  </tile>
 </tileset>
 <tileset firstgid="85" name="p" tilewidth="16" tileheight="16" tilecount="64" columns="4">
  <image source="tileset/paths.png" width="64" height="256"/>
 </tileset>
 <tileset firstgid="149" source="objects/Objects.tsx"/>
 <layer id="1" name="Back" width="25" height="15">
  <data encoding="csv">
13,13,13,13,13,13,13,13,13,13,13,13,13,13,13,13,13,13,0,0,0,13,13,13,21,
13,13,13,13,13,13,13,13,13,13,13,13,13,13,13,13,13,13,13,13,13,13,13,13,17,
13,13,13,13,13,13,13,13,13,13,13,13,13,13,13,13,13,13,13,13,13,13,13,13,21,
13,66,54,54,54,54,54,38,34,34,34,34,34,34,34,34,34,34,34,34,54,54,54,38,55,
13,37,14,26,16,13,55,57,54,47,54,54,47,54,54,47,54,54,47,54,54,26,13,56,55,
13,13,18,19,20,37,13,13,13,13,55,37,55,14,15,16,13,13,13,53,13,13,13,55,55,
13,13,22,23,24,13,55,13,55,13,13,13,18,19,19,24,13,55,13,14,15,16,13,13,55,
13,13,55,13,55,13,13,13,13,13,55,13,18,19,20,55,13,13,13,18,19,19,15,16,55,
13,13,13,13,13,13,55,13,55,37,13,13,22,23,24,13,37,55,13,22,23,19,19,19,55,
13,13,13,13,13,13,13,13,55,13,13,13,14,15,16,13,13,13,13,13,13,22,23,23,55,
13,13,13,13,13,13,55,13,13,13,56,13,18,19,20,13,13,55,13,13,13,13,13,13,55,
13,67,67,66,67,67,13,13,53,13,13,37,18,19,20,13,13,13,13,14,15,16,13,13,55,
13,19,19,19,19,20,56,13,13,13,55,13,22,23,24,13,13,55,14,19,19,20,13,13,55,
13,22,23,23,19,20,55,13,55,13,55,13,14,15,16,55,14,15,19,19,19,19,16,13,55,
13,13,13,13,13,13,13,13,13,13,13,13,13,13,13,13,13,13,13,13,13,20,13,13,0
</data>
 </layer>
 <layer id="2" name="Buildings" width="25" height="15">
  <data encoding="csv">
1,2,2,2,2,2,2,2,2,2,2,2,2,2,2,2,2,2,2,2,2,2,2,2,3,
5,17,17,25,17,17,17,62,17,25,17,17,25,17,17,25,17,17,25,62,17,25,61,17,7,
5,21,21,21,21,21,21,29,50,51,51,51,51,51,51,51,51,51,51,52,31,21,21,21,7,
5,73,0,0,0,0,0,41,0,0,0,0,0,0,0,0,0,0,0,0,35,74,75,76,7,
5,0,0,0,0,0,0,0,0,0,0,0,0,0,0,0,0,0,0,0,0,0,0,60,7,
5,0,0,0,0,0,0,0,0,0,0,0,0,0,0,0,0,0,0,0,0,0,0,64,7,
5,76,0,0,0,0,0,0,0,0,0,0,0,0,0,0,0,0,0,0,0,0,0,0,7,
9,58,63,0,0,0,0,0,0,0,0,0,0,0,0,0,0,0,0,0,0,0,0,0,7,
1,2,2,2,2,12,0,0,0,0,0,0,0,0,0,0,0,0,0,0,0,0,0,0,7,
5,17,62,17,17,17,0,0,0,0,0,0,0,0,0,0,0,0,0,0,0,0,0,0,7,
5,21,21,21,21,21,0,0,0,0,0,0,0,0,0,0,0,0,0,0,0,0,0,0,7,
5,43,44,73,43,44,0,0,0,0,0,0,0,0,0,0,0,0,0,0,0,0,0,0,7,
5,0,0,0,0,0,0,0,0,0,0,0,0,0,0,0,0,0,0,0,0,0,0,76,7,
5,0,0,0,0,0,0,0,0,0,0,0,0,0,0,0,0,0,0,0,0,0,0,58,7,
49,49,49,49,49,49,49,49,49,49,5,0,7,49,49,49,49,49,49,49,49,49,49,49,49
</data>
 </layer>
 <layer id="3" name="Front" width="25" height="15">
  <data encoding="csv">
1,2,2,2,2,2,2,2,2,2,2,2,2,2,2,2,2,2,2,2,2,2,2,2,3,
5,65,0,0,0,0,0,0,0,0,0,0,0,0,0,0,0,0,0,0,0,0,0,0,7,
5,69,0,0,0,0,0,0,0,0,0,0,0,0,0,0,0,0,0,0,0,70,71,72,7,
5,0,0,0,0,0,0,0,0,0,0,0,0,0,0,0,0,0,0,0,0,0,0,0,7,
5,0,0,0,0,0,0,0,0,0,0,0,0,0,0,0,0,0,0,0,0,0,0,0,7,
5,72,0,0,0,0,0,0,0,0,0,0,0,0,0,0,0,0,0,0,0,0,0,0,7,
5,0,59,0,0,0,0,0,0,0,0,0,0,0,0,0,0,0,0,0,0,0,0,0,7,
9,10,10,10,10,4,0,0,0,0,0,0,0,0,0,0,0,0,0,0,0,0,0,0,7,
1,2,2,2,2,12,0,0,0,0,0,0,0,0,0,0,0,0,0,0,0,0,0,0,7,
5,0,0,65,0,0,0,0,0,0,0,0,0,0,0,0,0,0,0,0,0,0,0,0,7,
5,39,40,69,39,40,0,0,0,0,0,0,0,0,0,0,0,0,0,0,0,0,0,0,7,
5,0,0,0,0,0,0,0,0,0,0,0,0,0,0,0,0,0,0,0,0,0,0,72,7,
5,0,0,0,0,0,0,0,0,0,0,0,0,0,0,0,0,0,0,0,0,0,0,0,7,
9,10,10,10,10,10,10,10,10,10,4,0,8,10,10,10,10,10,10,10,10,10,10,10,11,
49,49,49,49,49,49,49,49,49,49,9,10,11,49,49,49,49,49,49,49,49,49,49,49,49
</data>
 </layer>
 <objectgroup id="9" name="objects">
  <object id="3" name="MapBoundary" x="191.5" y="235.5">
   <polygon points="0,0 -16.5,0 -16.5,-18 -176.5,-17 -176,-46 -171.5,-45 -173,-60 -149,-60 -149,-46 -97,-46.5 -95.5,-113 -142.5,-113.5 -143,-127.5 -157.5,-128.5 -158.5,-151.5 -174.5,-151.5 -175.5,-174.5 -163,-174.5 -163,-185.5 -77.5,-186.5 -78,-173.5 143,-172.5 143,-175 191.5,-174 193.5,-57 177,-57 177,-17.5 1,-17"/>
  </object>
  <object id="4" name="Spawner" x="173" y="219" width="20" height="17">
   <properties>
    <property name="sensor" type="bool" value="true"/>
    <property name="spawner" value="Farm"/>
   </properties>
  </object>
  <object id="5" name="Player" gid="151" x="168" y="217.5" width="32" height="32" visible="0">
   <properties>
    <property name="cameraFollow" type="bool" value="true"/>
    <property name="controller" type="bool" value="true"/>
    <property name="player" type="bool" value="true"/>
   </properties>
  </object>
 </objectgroup>
</map>
